src/assets/outline/Zel.svg

<svg width="24" height="24" viewBox="0 0 24 24"  xmlns="http://www.w3.org/2000/svg">
<path d="M8 16.5009C7.87 16.5009 7.74 16.4709 7.63 16.4009L5.13 14.9609C4.9 14.8309 4.75 14.5809 4.75 14.3109V11.4609C4.75 11.1909 4.89 10.9409 5.13 10.8109L7.63 9.37094C7.86 9.24094 8.15 9.24094 8.38 9.37094L10.88 10.8109C11.11 10.9409 11.26 11.1909 11.26 11.4609V14.3109C11.26 14.5809 11.12 14.8309 10.88 14.9609L8.38 16.4009C8.26 16.4709 8.13 16.5009 8 16.5009ZM6.25 13.8809L8 14.8909L9.75 13.8809V11.8909L8 10.8809L6.25 11.8909V13.8809Z" />
<path d="M16 16.5009C15.87 16.5009 15.74 16.4709 15.63 16.4009L13.13 14.9609C12.9 14.8309 12.75 14.5809 12.75 14.3109V11.4609C12.75 11.1909 12.89 10.9409 13.13 10.8109L15.63 9.37094C15.86 9.24094 16.15 9.24094 16.38 9.37094L18.88 10.8109C19.11 10.9409 19.26 11.1909 19.26 11.4609V14.3109C19.26 14.5809 19.12 14.8309 18.88 14.9609L16.38 16.4009C16.26 16.4709 16.13 16.5009 16 16.5009ZM14.25 13.8809L16 14.8909L17.75 13.8809V11.8909L16 10.8809L14.25 11.8909V13.8809Z" />
<path d="M12 14.7997C11.87 14.7997 11.74 14.7697 11.63 14.6997L10.13 13.8397C9.9 13.7097 9.75 13.4597 9.75 13.1897V11.8897L8.88 11.3897C8.65 11.2597 8.5 11.0097 8.5 10.7397V9.3197C8.5 9.0497 8.64 8.79969 8.88 8.66969L11.63 7.08969C11.86 6.95969 12.15 6.95969 12.38 7.08969L15.13 8.66969C15.36 8.79969 15.51 9.0497 15.51 9.3197V10.7397C15.51 11.0097 15.37 11.2597 15.13 11.3897L14.26 11.8897V13.1897C14.26 13.4597 14.12 13.7097 13.88 13.8397L12.38 14.6997C12.26 14.7697 12.13 14.7997 12 14.7997ZM11.25 12.7597L12 13.1897L12.75 12.7597V11.4597C12.75 11.1897 12.89 10.9397 13.13 10.8097L14 10.3097V9.75969L12 8.60969L10 9.75969V10.3097L10.87 10.8097C11.1 10.9397 11.25 11.1897 11.25 11.4597V12.7597Z" />
<path d="M12 22.75C6.07 22.75 1.25 17.93 1.25 12C1.25 6.07 6.07 1.25 12 1.25C17.93 1.25 22.75 6.07 22.75 12C22.75 17.93 17.93 22.75 12 22.75ZM12 2.75C6.9 2.75 2.75 6.9 2.75 12C2.75 17.1 6.9 21.25 12 21.25C17.1 21.25 21.25 17.1 21.25 12C21.25 6.9 17.1 2.75 12 2.75Z" />
</svg>

<?xml version="1.0" encoding="UTF-8"?>
<svg width="24" height="24" viewBox="0 0 24 24" xmlns="http://www.w3.org/2000/svg">
 <path d="m8 16.501c-0.13 0-0.26-0.03-0.37-0.1l-2.5-1.44c-0.23-0.13-0.38-0.38-0.38-0.65v-2.85c0-0.27 0.14-0.52 0.38-0.65l2.5-1.44c0.23-0.13 0.52-0.13 0.75 0l2.5 1.44c0.23 0.13 0.38 0.38 0.38 0.65v2.85c0 0.27-0.14 0.52-0.38 0.65l-2.5 1.44c-0.12 0.07-0.25 0.1-0.38 0.1zm-1.75-2.62 1.75 1.01 1.75-1.01v-1.99l-1.75-1.01-1.75 1.01v1.99z"/>
 <path d="m16 16.501c-0.13 0-0.26-0.03-0.37-0.1l-2.5-1.44c-0.23-0.13-0.38-0.38-0.38-0.65v-2.85c0-0.27 0.14-0.52 0.38-0.65l2.5-1.44c0.23-0.13 0.52-0.13 0.75 0l2.5 1.44c0.23 0.13 0.38 0.38 0.38 0.65v2.85c0 0.27-0.14 0.52-0.38 0.65l-2.5 1.44c-0.12 0.07-0.25 0.1-0.38 0.1zm-1.75-2.62 1.75 1.01 1.75-1.01v-1.99l-1.75-1.01-1.75 1.01v1.99z"/>
 <path d="m12 14.8c-0.13 0-0.26-0.03-0.37-0.1l-1.5-0.86c-0.23-0.13-0.38-0.38-0.38-0.65v-1.3l-0.87-0.5c-0.23-0.13-0.38-0.38-0.38-0.65v-1.42c0-0.27 0.14-0.52001 0.38-0.65001l2.75-1.58c0.23-0.13 0.52-0.13 0.75 0l2.75 1.58c0.23 0.13 0.38 0.38001 0.38 0.65001v1.42c0 0.27-0.14 0.52-0.38 0.65l-0.87 0.5v1.3c0 0.27-0.14 0.52-0.38 0.65l-1.5 0.86c-0.12 0.07-0.25 0.1-0.38 0.1zm-0.75-2.04 0.75 0.43 0.75-0.43v-1.3c0-0.27 0.14-0.52 0.38-0.65l0.87-0.5v-0.55001l-2-1.15-2 1.15v0.55001l0.87 0.5c0.23 0.13 0.38 0.38 0.38 0.65v1.3z"/>
 <path d="m12 22.75c-5.93 0-10.75-4.82-10.75-10.75s4.82-10.75 10.75-10.75 10.75 4.82 10.75 10.75-4.82 10.75-10.75 10.75zm0-20c-5.1 0-9.25 4.15-9.25 9.25s4.15 9.25 9.25 9.25 9.25-4.15 9.25-9.25-4.15-9.25-9.25-9.25z"/>
</svg>
